X: 58
T: REELS: Humours of Lissadell Set
T: Humours of Lissadell
C: C: Trad.; S: Bothy Band / Máire O'Keeffe; Paddy Cronin; Denis Murphy
C: Set Leaders: Anton, Mars
Z: Anton Zille ed., Oleg Naumov arr.; Caoimghgin / jaychoons / gian marco at The Session
N: https://thesession.org/members/26966/sets/94457
R: Reel
M: 4/4
L: 1/8
Q: 1/2=100
K: Edor
gf|:"Em"eB~B2 "G/B"eBdB|"D"AF~F2 "D/F#"EDB,A,|"Em"B,E~E2 B,EGE|"Bm"FB~B2 FBdf|
"Em"eB~B2 "G/B"eBdB|"D"AF~F2 "D/F#"EDB,A,|"Em"B,EED EFGA|"D"B/c/d ed "(G)"e2gf:||
|:"G"eB~B2 "A"A2FA|"D"d2 df ed"A"ef|"Bm"df~f2 "D/F#"dfbf|"G"afdf "A"edBc|
"Bm"d2 fd BcdB|"D/F#"AF~F2 ABde|"G"~f2ef dfbf|"A"afdf e2gf:||
T: Pride of Rathmore / Gneeveguilla
K: Edor
"Em"~E3 F G2 EF|GBAG "D"FDDF|"Em"~E3 F G3 A|"D"B/c/d ed Bd e2|
"Em"~E3 F G2 EF|GBAG "D"FDDF|"Em"~E3 F G3 A|"D"B/c/d ed BE ~E2||
"Em"e3 d Bdef|"D"geag fd d2|"Em"e/f/g ed Bdeg|"D"fedB e3 d|
"Em"B/c/d ed Bdef|"D"geag fd d2|"G"~g3 e dged|"Bm"B2 Ad "D"BEED||
T: Girls of Farranfore
K: Edor
"Em"BE~E2 GBdB|"D"AD~D2 FAed|"Em"BE~E2 "G"G3B|"D/F#"dBAd "D"BE~E2|
"G"GBdg eddB|"D"AD~D2 FAed|"Em"BE~E2 "G"~G3B|"D/F#"dBAd "D"BE~E2||
"Em"BeeB egfe|"D"dcdf afed|"Em"B/c/d ef "G"~g3e|"D/F#"dBAd "D"BE~E2|
"Em"BeeB egfe|"D"dcdf afdf|"G"g2bg "D/F#"fgaf|"Em"edef "D"gfed||

